!!!!SEGMENT: pl-wumfc--n53446--001-018_moniuszko-stanislaw--hrabina-akt-trzeci-polonez.krn
!!!cenid: 18xx:4105
!!!COM: Moniuszko, Stanisław
!!!COM-rismID: pe30008351
!!!CDT: 1819/05/05-1872/06/04
!!!CNT: Polish
!!!OPR: Hrabina
!!!OTL: Akt trzeci. Polonez
!!!OMV: 018
!!!PDT:
!!!AGN:
!!!SMS-siglum: PL-Wumfc
!!!SMS-shelfmark: N53446
!!!SMS-shelfwork: 001-018 M
!!!SMS-variant:
!!!SMS-altvar:
!!!NIFC-rismSourceID: 1001165649
!!!NIFC-rismChildID: 1001165649
!!!NIFC-islandoraID: pl-wumfc:6884
!!!URL-pdf-islandora: https://repozytorium.nifc.pl/islandora/object/pl-wumfc%3A6884/datastream/PDF/view
!!!URL-scan: https://polish.musicsources.pl/pl/lokalizacje/galeria/druki-muzyczne/12579-hrabina @EN{Scan on Polish Music Sources Website} @PL{Skany w portalu Dziedzictwo Muzyki Polskiej w otwartym dostępie}
!!!ONB-nifc:
!!!AIN: 1 piano
!!!key: D
**kern	**kern	**dynam
*part1	*part1	*part1
*staff2	*staff1	*
*I"[Piano.]	*I"[Piano.]	*
*Ipiano	*Ipiano	*
*ICklav	*ICklav	*
*clefF4	*clefF4	*
*k[f#c#]	*k[f#c#]	*
*D:	*D:	*
*M3/4	*M3/4	*
=1	=1	=1
*^	*^	*
*tremolo	*	*	*	*
!!LO:TX:B:a:t=Moderato.
8AA/L	2.AAA\	4r	2ryy	p
8AA/	.	.	.	.
8AA/	.	4r	.	.
8AA/	.	.	.	.
8AA/	.	4A^/	[4A\	.
8AA/J	.	.	.	.
*v	*v	*	*	*
=2	=2	=2	=2
8AA/L	8B/L	8A\L]	.
.	8qA/	.	.
8AA/	8B/J	16G\L	.
.	.	16F#\JJ	.
8AA/	4.B^/	8G\L	.
8AA/	.	8E\	.
8AA/	.	8A\	.
8AA/J	8c#/	8G\J	.
*Xtremolo	*	*	*
=3	=3	=3	=3
*^	*	*	*
8.G/L	2.AA\	8.e^/L	4r	.
16F#/Jk	.	16d/Jk	.	.
4F#/	.	4.d/	8r	.
.	.	.	8A\L	.
8r	.	.	8A\	.
[8F#/	.	[8d^/	8A\J	.
=4	=4	=4	=4	=4
*	*tremolo	*	*tremolo	*
8F#/L]	8AA\L	8d/L]	8G\L	.
8qF#/	.	8qd/	.	.
16E/L	8AA\	16c#/L	8G\	.
16D/JJ	.	16B/JJ	.	.
8E/L	8AA\	4.c#/	8G\	.
8E/	8AA\	.	8G\	.
8E/	8AA\	.	8G\	.
8D/J	8AA\J	8d/	8G\J	.
!!LO:LB:g=original
=5	=5	=5	=5	=5
8.D/L	8AA\L	8.f#^/L	8G\L	.
.	8AA\	.	8G\	.
16C#/Jk	.	16e/Jk	.	.
8C#/L	8AA\	4.e/	8G\	.
8E/	8AA\	.	8G\J	.
*	*	*	*Xtremolo	*
8G/	8AA\	.	8A\L	.
8G/J	8AA\J	8A/	8A\J	.
*	*Xtremolo	*	*	*
*v	*v	*	*	*
=6	=6	=6	=6
*	*	*tremolo	*
8DD/L	8.f#/L	8AL 8F#\	.
8D/J	.	8A 8F#\	.
.	16e/Jk	.	.
*tremolo	*	*	*
8D/L	8d/L	8A 8F#\	.
8D/	8c#/	8AJ 8F#\	.
*	*	*Xtremolo	*
8D/	8B/	8F#\L	.
8D/J	8A/J	8F#\J	.
*Xtremolo	*	*	*
*	*v	*v	*
=7	=7	=7
8GG/L	8.c#L 8.A 8.D\	.
8D/J	.	.
.	16BJk 16G\	.
*tremolo	*	*
8D/L	4.B 4.G^\	.
8D/	.	.
8D/	.	.
8D/J	8B 8G\	.
*Xtremolo	*	*
=8	=8	=8
*^	*^	*
*	*tremolo	*	*	*
8C#/L	8AA\L	8.A/L	8E\L	<
8D/	8AA\	.	8F#\	.
.	.	16B/K	.	.
8E/	8AA\	8c#/	8G\	.
8F#/	8AA\	8d/	8A\	.
8G/	8AA\	8e/	8B\	.
8E/J	8AA\J	8g/J	8c#\J	[
*	*Xtremolo	*	*	*
*v	*v	*	*	*
*	*v	*v	*
=9	=9	=9
8DL 8DD/	8.gL 8.d 8.B\	sf
8D 8DD/	.	.
.	16f#Jk 16d 16A\	.
8D 8DD/	4.f# 4.d 4.A^\	.
8F# 8FF#/	.	.
8AA/	.	.
8F#J 8FF#/	8A\	.
!!LO:LB:g=original
=10	=10	=10
*^	*^	*
*tremolo	*	*	*tremolo	*
8D/L	4DD\	8.f#/L	8AL 8F#\	.
8D/	.	.	8A 8F#\	.
.	.	16e/	.	.
8D/	4r	8d/	8A 8F#\	.
8D/	.	8c#/	8AJ 8F#\	.
*	*	*	*Xtremolo	*
8D/	4r	8B/	8F#\L	.
8D/J	.	8A/J	8F#\J	.
*Xtremolo	*	*	*	*
*	*	*v	*v	*
=11	=11	=11	=11
8GG/L	4GG\	8.c#L 8.A 8.D\	.
8D/J	.	.	.
.	.	16BJk 16G\	.
*tremolo	*	*	*
8D/L	4GG\	4B 4G\	.
8D/	.	.	.
8D/	4r	8r	.
8D/J	.	8B 8G\	.
*Xtremolo	*	*	*
=12	=12	=12	=12
*	*	*^	*
*	*tremolo	*	*	*
8C#/L	8AA\L	8.A/L	8E\L	.
8D/	8AA\	.	8F#\	.
.	.	16B/	.	.
8E/	8AA\	8c#/	8G\	.
8F#/	8AA\	8d/	8A\	.
8G/	8AA\	8.f#/	8B\	.
8G/J	8AA\J	.	8c#\J	.
.	.	16e/Jk	.	.
*	*Xtremolo	*	*	*
*v	*v	*	*	*
*	*v	*v	*
=13	=13	=13
4AA 4AAA/	(4e 4c# (4G\	.
8DL 8DD/	8d) 8F#\)	.
8C# 8CC#/	8r	.
8BB 8BBB/	8r	.
8AAJ 8AAA/	8f#\	.
=14	=14	=14
*^	*^	*
*	*	*	*tremolo	*
8GG#X/L	8GGG#X\	8.e^>/L	8EL 8D\	.
8GG#/J	8r	.	8E 8D\	.
.	.	16B/	.	.
*	*tremolo	*	*	*
4r	8GG#\L	8B/	8E 8D\	.
.	8GG#\	8B/	8EJ 8D\	.
*	*	*	*Xtremolo	*
8C#/L	8GG#\	8c#/	8E\L	.
8BB/J	8GG#\J	8d/J	8E\J	.
*	*Xtremolo	*	*	*
*v	*v	*	*	*
!!LO:LB:g=original
=15	=15	=15	=15
*tremolo	*	*	*
8AA/L	8.d/L	8E\L	.
8AA/	.	8E\J	.
.	16c#/Jk	.	.
8AA/	4.e/	[4c#\	.
8AA/	.	.	.
8AA/	.	16c#\LL]	.
.	.	16B\	.
8AA/J	8f#/	16A\	.
!	!LO:TX:i:b:t=m.g.	!	!
.	.	16C#\JJ	.
*Xtremolo	*	*	*
=16	=16	=16	=16
8GG#X/L	8.f#/L	8BL 8E\	.
8BB/	.	8B 8E\	.
.	16B/Jk	.	.
8E/	8B/L	8B\	.
8D 8DD/	8B/J	8G#X 8E\	.
8C# 8CC#/	8c#/L	8A 8E\	.
8BBJ 8BBB/	8d/J	8G#J 8E\	.
=17	=17	=17	=17
*	*	*tremolo	*
8AAL 8AAA/	8.d/L	8AL 8E\	.
8EE/J	.	8A 8E\	.
.	16c#/Jk	.	.
*tremolo	*	*	*
8AA/L	4c#/	8A 8E\	.
8AA/	.	8A 8E\J	.
*	*	*Xtremolo	*
8AA/	8r	8A 8E\L	.
8AA/J	8A/	[8A^>\J	.
=18	=18	=18	=18
8AA/L	8B/L	8A\L]	.
.	8qA/	.	.
8AA/	8B/J	16G\L	.
.	.	16F#\JJ	.
8AA/	4.B^>/	8G\L	.
8AA/	.	8E\	.
8AA/	.	8A\	.
8AA/J	8c#/	8G\J	.
*Xtremolo	*	*	*
=19	=19	=19	=19
*^	*	*	*
*	*tremolo	*	*	*
8.G/L	8AA\L	8.e/L	4r	.
.	8AA\	.	.	.
16F#/Jk	.	16d/Jk	.	.
4ryy	8AA\	4.d/	8r	.
.	8AA\	.	8A\L	.
8ryy	8AA\	.	8A\	.
[8F#/	8AA\J	[8d/	8A\J	.
!!LO:LB:g=original
=20	=20	=20	=20	=20
*	*	*	*tremolo	*
8F#/L]	8AA\L	8d/L]	8G\L	.
(<8qF#/	.	(<8qd/	.	.
16E/L)	8AA\	16c#/L)	8G\	.
16D/JJ	.	16B/JJ	.	.
8E/L	8AA\	4.c#/	8G\	.
8E/	8AA\	.	8G\	.
8E/	8AA\	.	8G\	.
8D/J	8AA\J	8d/	8G\J	.
=21	=21	=21	=21	=21
8.D/L	8AA\L	8.f#^/L	8G\L	.
.	8AA\	.	8G\	.
16C#/Jk	.	16e/Jk	.	.
8C#/L	8AA\	4.e/	8G\	.
8E/	8AA\	.	8G\J	.
*	*	*	*Xtremolo	*
8G/	8AA\	.	8A\L	.
8G/J	8AA\J	8A/	8A\J	.
*	*Xtremolo	*	*	*
*v	*v	*	*	*
=22	=22	=22	=22
*	*	*tremolo	*
8DD/L	8.f#^/L	8AL 8F#\	.
8D/J	.	8A 8F#\	.
.	16e/Jk	.	.
*tremolo	*	*	*
8D/L	8d/L	8A 8F#\	.
8D/	8c#/	8AJ 8F#\	.
*	*	*Xtremolo	*
8D/	8B/	8F#\L	.
8D/J	8A/J	8F#\J	.
*Xtremolo	*	*	*
*	*v	*v	*
=23	=23	=23
8GG/L	8.c#L 8.A 8.D\	.
8D/J	.	.
.	16BJk 16G\	.
*tremolo	*	*
8D/L	4.B 4.G^\	.
8D/	.	.
8D/	.	.
8D/J	8B 8G\	.
*Xtremolo	*	*
=24	=24	=24
*^	*^	*
*	*tremolo	*	*	*
8C#/L	8AA\L	8.A/L	8E\L	<
8D/	8AA\	.	8F#\	.
.	.	16B/K	.	.
8E/	8AA\	8c#/	8G\	.
8F#/	8AA\	8d/	8A\	.
8G/	8AA\	8e/	8B\	.
8E/J	8AA\J	8g/J	8c#\J	[
*	*Xtremolo	*	*	*
*v	*v	*	*	*
*	*v	*v	*
!!LO:PB:g=original
=25	=25	=25
8DL 8DD/	8.gL 8.d 8.B\	sf
8D 8DD/	.	.
.	16f#Jk 16d 16A\	.
8D 8DD/	4.f# 4.d 4.A^\	.
8F# 8FF#/	.	.
8AA/	.	.
8F#J 8FF#/	8A\	.
=26	=26	=26
*	*^	*
8DL 8DD/	8.f#L 8.A^\	4ryy	.
8AA/	.	.	.
.	16eJk 16A 16G\	.	.
8D/	8d\ 8A\ 8F#\	8ryy	<
8C# 8CC#/	8d/L	8AL 8F#\	.
8BB 8BBB/	8.g/	8d 8G\	.
8AAJ 8AAA/	.	8dJ 8A\	[
.	16f#/Jk	.	.
=27	=27	=27	=27
8GGL 8GGG/	8.f#/L	8dL 8B\	.
16r	.	16r	.
16GG/Jk	16e/Jk	16BJk 16E\	.
8GG/L	4.e 4.E^/	8B\L	.
8FF#/	.	8A#\	.
8GG/	.	8B\	.
8GG#XJ 8GGG#X/	8d/	8BJ 8E#\	.
=28	=28	=28	=28
4AA 4AAA/	(8.d/L	4A 4F#\	.
.	16f#/Jk	.	.
8r	8a/)	8r	.
8AAL 8AAA'/	8ryy	8AL 8F#'\	.
8AA 8AAA'/	4ryy	8B 8Gn'\	.
8AAJ 8AAA'/	.	8c#J 8G 8En'\	.
*	*v	*v	*
=29	=29	=29
8.AAL 8.AAA/	(4e 4A (4G\	>
32BB/LL	.	.
32C#/JJJ	.	.
8DL 8DD/	8d 8A 8F#\))	]
8A 8AA/	8r	.
8F# 8FF#/	4r	.
8DJ 8DD/	.	.
!!LO:LB:g=original
=30||	=30||	=30||
*k[]	*k[]	*
*	*^	*
!	!LO:TX:i:a:t=Con anima	!	!
4AA 4AAA/	8.cL 8.A/	8E\L	.
.	.	8E\J	.
.	16dJk 16B/	.	.
*	*	*tremolo	*
8r	4.e 4.c/	8AL 8E\	.
8EE/L	.	8A 8E\	.
8CC/	.	8A 8E\	.
8AAA/J	8e 8c/	8AJ 8E\	.
=31	=31	=31	=31
8DL 8DD/	8.gL 8.e/	8A\L	.
8D/	.	8A\	.
.	16fJk 16d/	.	.
8D/	4.f 4.d^/	8A\	.
8D/	.	8A\	.
8D/	.	8A\	.
8D/J	8e 8c/	8A\J	.
*	*v	*v	*
=32	=32	=32
*	*^	*
8GG/L	8.eL 8.c^/	8G\L	.
8D 8GG/	.	8G\	.
.	16dJk 16B/	.	.
8GJ 8GG/	8dL 8B/	8G\	.
8FL 8FF/	8d 8B/	8G\	.
8E 8EE/	8.g 8.c/	8G\	.
8DJ 8DD/	.	8G\J	.
.	16fJk 16B/	.	.
*	*	*Xtremolo	*
=33	=33	=33	=33
*^	*	*	*
8C/L	4CC\	8.fL 8.c/	8G\L	.
8C/	.	.	8G\	.
.	.	16eJk 16c/	.	.
8C/J	8r	8e 8c/	8G\J	.
8C/L	4.ryy	4e^/	8E\L	.
8BB/	.	.	8d 8G#X 8E\	.
8AA/J	.	8e 8c/	8AJ 8E\	.
*v	*v	*	*	*
*	*v	*v	*
=34	=34	=34
!	!LO:TX:i:a:t=con dolore	!
8GG#X/L	8.eL 8.B 8.E\	.
8EE/	.	.
.	16BJk 16G#X\	.
8GG#/	8B 8G#\	.
8EE/	8BL 8G# 8E\	.
8AA/	8.d 8.B 8.E\	.
8C/J	.	.
.	16cJk 16A 16E\	.
!!LO:LB:g=original
=35	=35	=35
*^	*^	*
*	*tremolo	*	*	*
8.E^/L	8EE\L	4B/	8.G#X^\L	.
.	8EE\	.	.	.
16BB/Jk	.	.	16G#\Jk	.
8BB/L	8EE\	8B/	8G#\L	.
8BB/	8EE\	8r	8G#\	.
8.D^/	8EE\	4ryy	8.B^>\	.
.	8EE\J	.	.	.
16C/Jk	.	.	16A\Jk	.
*	*Xtremolo	*	*	*
=36	=36	=36	=36	=36
[4BB/	8EE\L	8.e^/L	4G#X\	.
.	8EE\	.	.	.
.	.	16B/Jk	.	.
*	*	*	*tremolo	*
8BB/]	8GG#X\	8B/	8E\L	.
8ryy	8EE\J	8BL 8G#/	8E\	.
4ryy	8AA\L	8.d 8.B^/	8E\	.
.	8C\J	.	8E\J	.
.	.	16cJk 16A/	.	.
*	*	*	*Xtremolo	*
=37	=37	=37	=37	=37
8.E^/L	8EE\L	(8.BL 8.G#X/	8E\L	.
.	8EE\	.	8E\	.
16BB/Jk	.	32dLL 32B/	.	.
.	.	32cJJJ 32A/	.	.
8BB/L	8EE\	8B 8G#/)	8E\J	.
8BB/J	8BB\	4B 4G#/	4E\	.
4ryy	8BBB\	.	.	.
.	8BB\J	8B 8A 8F#X/	8D#X\	.
*v	*v	*	*	*
*	*v	*v	*
=38||	=38||	=38||
*k[f#c#]	*k[f#c#]	*
*	*^	*
8EE/L	8B/L	8A\L	pp
.	8qA/	.	.
8BB/	8B/J	16G#X\L	.
.	.	16F#\JJ	.
8E/	4.B^/	8G#\L	.
8EE/	.	8G# 8E\	.
8AA/	.	8Gn 8E\	.
8AAJ 8AAA/	8c#/	8GJ 8E\	.
=39	=39	=39	=39
8AAL 8AAA/	8.e/L	8.G\L	.
8AA/J	.	.	.
.	16d/Jk	16F#\Jk	.
8AA/L	4.d/	8F#\L	.
8AA/	.	8A\	.
8AA/	.	8A\	.
8F#J 8AA^/	[8d^>/	8A\J	.
!!LO:LB:g=original
=40	=40	=40	=40
*^	*	*	*
*	*tremolo	*	*tremolo	*
8F#/L	8AA\L	8d/L]	8G\L	.
.	.	8qd/	.	.
16E/L	8AA\	16c#/L	8G\	.
16D/JJ	.	16B/JJ	.	.
8E/L	8AA\	4.c#/	8G\	.
8E/	8AA\	.	8G\	.
8E/	8AA\	.	8G\	.
8D/J	8AA\J	8d/	8G\J	.
=41	=41	=41	=41	=41
8.D/L	8AA\L	8.f#/L	8G\L	.
.	8AA\	.	8G\	.
16C#/Jk	.	16e/Jk	.	.
8C#/L	8AA\	4.e/	8G\	.
8E/	8AA\	.	8G\J	.
*	*	*	*Xtremolo	*
8G/	8AA\	.	8A\L	.
8G/J	8AA\J	8A/	8A\J	.
*	*Xtremolo	*	*	*
*v	*v	*	*	*
=42	=42	=42	=42
*	*	*tremolo	*
8DD/L	8.f#^/L	8AL 8F#\	.
8D/J	.	8A 8F#\	.
.	16e/Jk	.	.
*tremolo	*	*	*
8D/L	8d/L	8A 8F#\	.
8D/	8c#/	8AJ 8F#\	.
*	*	*Xtremolo	*
8D/	8B/	8F#\L	.
8D/J	8A/J	8F#\J	.
*Xtremolo	*	*	*
*	*v	*v	*
=43	=43	=43
8GG/L	8.c#L 8.A 8.D\	.
8D/J	.	.
.	16BJk 16G\	.
*tremolo	*	*
8D/L	4.B 4.G^\	.
8D/	.	.
8D/	.	.
8D/J	8B 8G\	.
*Xtremolo	*	*
=44	=44	=44
*^	*^	*
8C#/L	2.AA\	8.A/L	8E\L	<
8D/	.	.	8F#\	.
.	.	16B/K	.	.
8E/	.	8c#/	8G\	.
8F#/	.	8d/	8A\	.
8G/	.	8e/	8B\	.
8E/J	.	8g/J	8c#\J	[
*v	*v	*	*	*
*	*v	*v	*
!!LO:LB:g=original
=45	=45	=45
8DL 8DD/	8.gL 8.d 8.B\	sf
8D 8DD/	.	.
.	16f#Jk 16d 16A\	.
8D 8DD/	4.f# 4.d 4.A^\	.
8F# 8FF#/	.	.
8AA/	.	.
8F#J 8FF#/	8A\	.
=46	=46	=46
*	*^	*
8DL 8DD/	8.f#L 8.A^\	4.ryy	.
8AA/	.	.	<
.	16eJk 16A 16G\	.	.
8D/	8d 8A 8F#\	.	.
8C# 8CC#/	8d/L	8AL 8F#\	.
8BB 8BBB/	8.g/	8d 8G\	.
8AAJ 8AAA/	.	8dJ 8A\	.
.	16f#/Jk	.	[
=47	=47	=47	=47
8GGL 8GGG/	8.f#/L	8dL 8B\	.
16r	.	16r	.
16GG/Jk	16e/Jk	16BJk 16E\	.
8GG/L	4.e 4.E^/	8B\L	.
8FF#/	.	8A#X\	.
8GG/	.	8B\	.
8GG#XJ 8GGG#X/	8d/	8BJ 8E#X\	.
=48	=48	=48	=48
4AA 4AAA/	8.d/L	4A 4F#\	.
.	16f#/Jk	.	.
8r	8a/	8r	.
8AAL 8AAA'/	8ryy	8AL 8F#'\	.
8AA 8AAA'/	4ryy	8B 8Gn'\	.
8AAJ 8AAA'/	.	8c#J 8G 8E'\	.
*	*v	*v	*
=49	=49	=49
8.AAL 8.AAA/	(4e 4A (4G\	.
32BB/LL	.	.
32C#/JJJ	.	.
8D 8DD/	8d 8A 8F#\))	.
8DL 8DD/	8r	.
8Cn 8CCn/	4r	.
8AAJ 8AAA/	.	.
*kcancel	*kcancel	*
!!LO:PB:g=original
=50||	=50||	=50||
*k[b-e-]	*k[b-e-]	*
*	*^	*
8GGL 8GGG/	8G/L	8G\L	fp
8GG/J	16ryy	16r	.
.	16G/Jk	16DJk 16BB-\	.
8GG/L	8B-/L	8GL 8D\	.
8D/	8d/	8B- 8G\	.
8D/	8.g^/	8B- 8G\	.
8D/J	.	8B-J 8G\	.
.	16f/Jk	.	.
=51	=51	=51	=51
8CL 8CC/	8.fL 8.d/	8G\L	.
16r	.	8G\J	.
16GGJk 16GGG/	16e-Jk 16c/	.	.
*	*	*tremolo	*
8CL 8CC/	4e-/	8cL 8G\	.
8E- 8EE-/	.	8c 8G\	.
8C 8CC/	8r	8c 8G\	.
8AAJ 8AAA/	8e-/	8cJ 8G\	.
*	*	*Xtremolo	*
=52	=52	=52	=52
8DL 8DD/	8.dL 8.A/	8F#X\L	.
8C/	.	8D\J	.
.	16AJk 16F#/	.	.
*	*	*tremolo	*
8BB-/	8B-L 8G/	8D\L	.
8AA/	8c 8A/	8D\	.
8GG/	8.d 8.B-^/	8D\	.
8FF#X/J	.	8D\J	.
.	16A/Jk	.	.
*	*	*Xtremolo	*
=53	=53	=53	=53
8GG/L	4c 4G/	8D\L	.
8D 8DD/	.	8D\	.
8GG/J	8B-/	8G\J	.
8BB-/L	8ryy	4B-\	.
8G 8GG/	4ryy	.	.
8FJ 8FF/	.	8B- 8A\	.
=54	=54	=54	=54
8E-L 8EE-/	8B-L 8G/	8E-\L	.
16r	16r	8E-\J	.
16BB-/Jk	16B-Jk 16G/	.	.
8E-/L	4.e-^/	8GL 8E-\	.
!	!	!	!LO:HP:b:t=cresc.:ext2=ud
8EE-/	.	8G 8E-\	<
8FF/	.	8A-X 8E-\	.
8GG/J	8d/	8B-J 8E-\	.
!!LO:LB:g=original
=55	=55	=55	=55
*	*	*tremolo	*
8AA-X/L	8.dL 8.B-/	8E-\L	.
8C/	.	8E-\	.
.	16cJk 16A-X/	.	.
8E-/	4.c 4.A-/	8E-\	.
8C/	.	8E-\J	.
*	*	*Xtremolo	*
8AA-/	.	8E-\L	.
8GG-X/J	8c 8B-/	8En\J	.
=56	=56	=56	=56
8FF/L	8cL 8An/	8F\L	.
8C/	16r	8F\J	.
.	16cJk 16A/	.	.
8F/J	4.f/	8A\L	.
8FF/L	.	8A 8F\	.
8GGn/	.	8B- 8F\	.
8AAn/J	8e-/	8cJ 8F\	.
=57	=57	=57	=57
*	*	*tremolo	*
8BB-/L	8.e-L 8.c/	8F\L	.
8D/	.	8F\	.
.	16dJk 16B-/	.	.
8F/	4.d 4.B-/	8F\	.
8D/	.	8F\J	.
*	*	*Xtremolo	*
8BB-/	.	8F\L	.
8AA-X/J	8d 8c/	8F#X\J	.
*	*v	*v	*
=58	=58	=58
8GG/L	8.dL 8.Bn 8.G\	[ f
8D 8DD/	.	.
.	16dJk 16B 16G\	.
8GG/J	8gL 8B 8G\	.
8GL 8GG^/	8a-X 8f^\	.
8G 8AAn^/	8g 8e-^\	.
8GJ 8BBn^/	8fJ 8d^\	.
=59	=59	=59
*^	*^	*
8G 8C/	4ryy	8e-L 8c\	4ryy	.
8r	.	8c\J	.	.
4C/	4FF#X\	4e-/	4.A\	sf
8D/L	8FF#\L	8d/L	.	.
8E-/J	8FF#\J	8c/J	8A\	.
!!LO:LB:g=original
=60	=60	=60	=60	=60
!	!	!	!	!LO:DY:b:t=più p
8DL 8GG/	4ryy	8B-L 8G\	4ryy	p
8GG/J	.	8G\J	.	.
4GG/	2CC#X^\	4B-^/	2En\	.
.	.	16qqcn/LL	.	.
.	.	16qqB-/JJ	.	.
8AA/L	.	8A/L	.	.
8BB-/J	.	8G/J	.	.
*v	*v	*	*	*
=61	=61	=61	=61
8DD/L	8.F#XL 8.D\	4ryy	.
8AA/	.	.	.
.	16GJk 16En\	.	.
*	*	*tremolo	*
8D/	4A 4F#/	8D\L	.
8FF#X/	.	8D\	.
8AA/	8r	8D\	.
8DD/J	8A/	8D\J	.
*	*	*Xtremolo	*
*	*v	*v	*
=62||	=62||	=62||
*k[f#c#]	*k[f#c#]	*
*	*^	*
8GG\L	8B/L	8AL 8D\	pp
.	8qA/	.	.
8D\	8B/J	16G\L	.
.	.	16F#\JJ	.
8G\	4.B^/	8G\L	.
8E\	.	8G\J	.
8A\	.	8r	.
8AA\J	8c#/	8G 8E\	.
=63	=63	=63	=63
*^	*	*	*
*	*tremolo	*	*	*
8.G/L	8AA\L	8.e^/L	4r	.
.	8AA\	.	.	.
16F#/Jk	.	16d/Jk	.	.
4F#/	8AA\	4.d/	8r	.
.	8AA\	.	8A\L	.
8r	8AA\	.	8A\	.
8F#/	8AA\J	[8d^/	8A\J	.
=64	=64	=64	=64	=64
*	*	*	*tremolo	*
8F#/L	8AA\L	8d/L]	8G\L	.
.	.	8qd/	.	.
16E/L	8AA\	16c#/L	8G\	.
16D/JJ	.	16B/JJ	.	.
8E/L	8AA\	4.c#/	8G\	.
8E/	8AA\	.	8G\	.
8E/	8AA\	.	8G\	.
8D/J	8AA\J	8d/	8G\J	.
!!LO:LB:g=original
=65	=65	=65	=65	=65
8.D/L	8AA\L	8.f#^/L	8G\L	.
.	8AA\	.	8G\	.
16C#/Jk	.	16e/Jk	.	.
8C#/L	8AA\	4.e/	8G\	.
8E/	8AA\	.	8G\J	.
*	*	*	*Xtremolo	*
8G/	8AA\	.	8A\L	.
8G/J	8AA\J	8ryy	8A\J	.
*	*Xtremolo	*	*	*
=66	=66	=66	=66	=66
*tremolo	*	*	*tremolo	*
8D/L	4DD\	8.f#^/L	8AL 8F#\	.
8D/	.	.	8A 8F#\	.
.	.	16e/K	.	.
8D/	4r	8d/	8A 8F#\	.
8D/	.	8c#/	8AJ 8F#\	.
*	*	*	*Xtremolo	*
8D/	4r	8B/	8F#\L	.
8D/J	.	8A/J	8F#\J	.
*Xtremolo	*	*	*	*
*	*	*v	*v	*
=67	=67	=67	=67
8GG/L	4GG\	8.c#L 8.A 8.D\	.
8D/J	.	.	.
.	.	16BJk 16G\	.
*tremolo	*	*	*
8D/L	4GG\	4B 4G^\	.
8D/	.	.	.
8D/	4r	8r	.
8D/J	.	8B 8G\	.
*Xtremolo	*	*	*
=68	=68	=68	=68
*	*	*^	*
*	*tremolo	*	*	*
8C#/L	8AA\L	8.A/L	8E\L	<
8D/	8AA\	.	8F#\	.
.	.	16B/K	.	.
8E/	8AA\	8c#/	8G\	.
8F#/	8AA\	8d/	8A\	.
8G/	8AA\	8e/	8B\	.
8E/J	8AA\J	8g/J	8c#\J	[
*	*Xtremolo	*	*	*
*v	*v	*	*	*
*	*v	*v	*
=69	=69	=69
8DL 8DD/	8.gL 8.d 8.B\	f
8D 8DD/	.	.
.	16f#Jk 16d 16A\	.
8D 8DD/	4.f# 4.d 4.A^\	.
8F# 8FF#/	.	.
8AA/	.	.
8F#J 8FF#/	8A\	.
!!LO:LB:g=original
=70	=70	=70
*	*^	*
8DL 8DD/	8.f#L 8.A^\	4.ryy	<
8AA/	.	.	.
.	16eJk 16A 16G\	.	.
8D/	8d 8A 8F#\	.	.
8C# 8CC#/	8d/L	8AL 8F#\	.
8BB 8BBB/	8.g/	8d 8G\	.
8AAJ 8AAA/	.	8dJ 8A\	.
.	16f#/Jk	.	[
=71	=71	=71	=71
8GGL 8GGG/	8.f#/L	8dL 8B\	.
16r	.	16r	.
16GG/Jk	16e/Jk	16BJk 16E\	.
8GG/L	4.e 4.E/	8B\L	.
8FF#/	.	8A#X\	.
8GG/	.	8B\	.
8GG#XJ 8GGG#X/	8d/	8BJ 8E#X\	.
=72	=72	=72	=72
4AA 4AAA/	8.d/L	4A 4F#\	.
.	16f#/Jk	.	.
8r	8a/	8r	.
8AAL 8AAA'/	4.ryy	8AL 8F#'\	.
8AA 8AAA'/	.	8B 8Gn'\	.
8AAJ 8AAA'/	.	8c#J 8G 8En'\	.
*	*v	*v	*
=73	=73	=73
8.AAL 8.AAA/	(4e 4A (4G\	pp
32BB/LL	.	.
32C#/JJJ	.	.
8D 8DD/	8d 8A 8F#\))	.
8r	8r	.
4r	4r	.
==	==	==
*-	*-	*-
!!!system-decoration: {(p1)}
!!!ENC: Andrzej Gręziak
!!!END: 2022-08-22
!!!ENC: Kamil Watkowski
!!!END: 2022-09-28
!!!RDF**kern: > = above
!!!RDF**kern: < = below
!!!YEC: Copyright 2022 Narodowy Instytut Fryderyka Chopina (https://polishscores.org)
!!!YEM: License CC-BY-4.0 (https://creativecommons.org/licenses/by/4.0)
